X:34
T:La Follia
C:Corelli
N:TablEdited by Christian Pignard
L:1/8
Q:1/4=120
M:3/4
K:F
z6 |: [d2D2] d3e | [_d2A2] d3d | [d2D2] d3c/d/ | [e2c2] e3e | [f2F2] f3g |1 [e2c2] e3e | 
[dD]^c d3e | [_d4_D4] ^c2 :|2 [e2c2] e_g =g2 | [fF]e/d/ _d3=d | [d6D6] | [fd]D FA FD | 
[e^c]A, ^CE ^CA, | [fd]D FA FD | [ge]C EG EC | [af]F Ac AF | [ge]C EG EC | [fd]F Ac AF | 
[e^c]A, ^CE ^CA, | [fd]D FA FD | [e^c]A, ^CE CA, | [fd]D FA FD | [ge]C EG EC | 
[af]F Ac AF | (3=B,DG (3^CG_B (3DFA | (3G,Fd [E3A,3]D | [d6D6] | [dD]f af df | 
[eA]a ^ce A^c | [dD]f af df | [ec]g c'g eg | [aA]f ac' af | [gc]c eg [a_d]e | 
[fd]A [dG]f ed | [_d4_D4] ^c2 | [dD]f af df | [eA]a _de A^c | [dD]f af df | [ec]g c'g eg | 
[af]f ac' af | [gc]e gb [a^c]g | [fd]e [e3A3]d | [d6D6] | (3dfd (3AdA (3FAd | 
(3A^cA (3EGE (3^cea | (3dfd (3AdA (3Fdf | (3cec (3GcG (3EGc | (3faf (3cfc (3Afa | 
(3cdc (3gae (3fge | (3fge [e3d3]d | [d6D6] | d/A/=B/^c/ d/F/G/A/ D/F/E/D/ | A/E/^F/^G/ A/^C/D/E/ A,/C/=B,/A,/ | 
d/A/=B/^c/ d/F/G/A/ D/F/E/D/ | c/G/A/=B/ c/E/F/G/ C/E/D/C/ | f/c/d/e/ f/A/B/c/ F/A/G/F/ | 
c/G/A/=B/ c/D/E/F/ C/E/D/C/ | d/A/=B/^c/ d/F/G/A/ D/F/E/D/ | ^c/E/^F/^G/ A/^C/D/E/ A,/C/=A,/ | 
d/f/a/f/ d/f/a/f/ d/f/a/f/ | ^c/e/g/e/ c/e/g/e/ c/e/g/e/ | d/f/a/f/ d/f/a/f/ =B/f/g/f/ | 
c/e/g/e/ c/e/g/e/ =B/e/g/e/ | f/a/c'/a/ f/a/c'/a/ f/a/g/f/ | e/g/c'/g/ e/g/c'/g/ e/g/f/e/ | 
f/A/=B/^c/ d/=c/d/e/ d/f/e/d/ | ^c/A/c/e/ c/A/c/e/ c/A/c/e/ | d/f/a/f/ d/f/a/f/ d/f/a/f/ | 
^c/e/a/e/ c/e/a/e/ c/e/a/e/ | d/f/a/f/ d/f/a/f/ =B/f/g/f/ | c/e/g/e/ c/e/g/e/ B/e/g/e/ | 
e/a/c'/a/ f/a/c'/a/ f/a/g/f/ | e/g/c'/g/ e/g/c'/g/ e/g/f/e/ | f/d/^c/d/ A/d/c/d/ E/d/c/d/ | 
[d6D6] | 
 

